X: 1
T: Sju vackra flickor i en ring
T: Seven pretty girls in a ring
M: 3/4
L: 1/8
K: Eb
[| "Eb"B2 Bc BA | G2 B2 E2 | B2 Bc BA | G2 B2 E2 |
|  "Fm"F2 FF "F7"FF | "Bb" D2 F2 "Gm"B2 | "Bb"d2 dc "F7"B=A | c2 "Bb"B2 z2 |]
